X:1
T:Armenia, CM
T:Armenia, CM
T:Sylvanus Billings Pond, 1836
T:Public Domain Courtesy of the Cyber Hymnal™
C:Sylvanus Billings Pond, 1836
Z:Public Domain
Z:Courtesy of the Cyber Hymnal™
%%score ( 1 2 ) ( 3 4 )
L:1/8
M:3/4
K:Ab
V:1 treble 
V:2 treble 
V:3 bass 
V:4 bass 
V:1
 [CA]2 | (A2 G2) A2 | [GB]4 [GB]2 | (B2 A2) [EB]2 | [Ec]4 [EB]2 | (c2 B2) [=DA]2 | %6
 [EG]2 [FA]2 [=DF]2 | E6- | _E4 [CE]2 | (A2 G2) A2 | [GB]4 [GB]2 | [GB]2 A2 [EB]2 | [Ec]4 [Ec]2 | %13
 [Fd]2 [Ec]2 [GB]2 | A2 [FB]2 [EG]2 | [EA]4 |] %16
V:2
 x2 | E4 (EA) | x6 | E4 x2 | x6 | E4 x2 | x6 | E6 | _E4 x2 | E4 (EA) | x6 | x2 A2 x2 | x6 | x6 | %14
 A2 x4 | x4 |] %16
V:3
 [A,,A,]2 | ([A,,C]2 [B,,B,]2) ([C,A,][A,,C]) | [E,E]4 [E,E]2 | (D2 C2) [E,D]2 | [A,C]4 [E,G,]2 | %5
 A,2 [G,B,]2 [F,B,]2 | [E,B,]2 [A,,C]2 (B,A,) | [E,G,]6- | [E,G,]4 [A,,A,]2 | %9
 [A,,C]2 [B,,B,]2 ([C,A,][A,,C]) | [E,E]4 [E,E]2 | (D2 C2) [E,D]2 | [A,C]4 A,2 | A,4 [E,D]2 | %14
 [F,C]2 [D,D]2 [E,B,]2 | [A,,C]4 |] %16
V:4
 x2 | x6 | x6 | E,4 x2 | x6 | A,2 x4 | x4 B,,2 | x6 | x6 | x6 | x6 | E,4 x2 | x4 A,2 | A,4 x2 | %14
 x6 | x4 |] %16

